X: 25
T: Westwind
C: R-9
M: C|
Z: Transcribed to abc by Mary Lou Knack
R: reel
K: D
A|: "D"F2A2 F2A2| F2A2 "D7"dcBA| "D"F2A2 F2A2| "A7"E2A2 A4|
    "D"F2A2 F2A2| F2A2 "D7"dcBA| "D"d2d2 "A7"efge| "D"f2d2 d4 :|
|:\
"D"f2a2 a2a2| f2a2 a3f| "G"g3e "D"f3d| "A7"e2c2 B2A2|
"D"d2A2 "A7"BcBA| "D"d2A2 "A7"BcBA| "D"d2d2 "A7"efge| "D"f2d2 d4 :|
%%text 9/1/98


